X:36
T:Aboot the Bush, Willy
Z:Jack Campin, http://www.campin.me.uk/
S:Northumbrian Minstrelsy
M:6/4
L:1/4
K:Bb
c|d B c A F c|d B c A2  \
c|d B c A F f|e c A B2||
c|d e f A F c|d e f A2  \
c|d e f A F f|e c A B2|]

